frontend/src/assets/instagram.svg

<?xml version="1.0" encoding="UTF-8" standalone="no"?>
<svg width="256px" height="256px" viewBox="0 0 256 256" version="1.1" xmlns="http://www.w3.org/2000/svg" xmlns:xlink="http://www.w3.org/1999/xlink" preserveAspectRatio="xMidYMid">
    <g>
        <path d="M127.999746,23.06353 C162.177385,23.06353 166.225393,23.1936027 179.722476,23.8094161 C192.20235,24.3789926 198.979853,26.4642218 203.490736,28.2166477 C209.464938,30.5386501 213.729395,33.3128586 218.208268,37.7917319 C222.687141,42.2706052 225.46135,46.5350617 227.782844,52.5092638 C229.535778,57.0201472 231.621007,63.7976504 232.190584,76.277016 C232.806397,89.7746075 232.93647,93.8226147 232.93647,128.000254 C232.93647,162.177893 232.806397,166.225901 232.190584,179.722984 C231.621007,192.202858 229.535778,198.980361 227.782844,203.491244 C225.46135,209.465446 222.687141,213.729903 218.208268,218.208776 C213.729395,222.687649 209.464938,225.461858 203.490736,227.783352 C198.979853,229.536286 192.20235,231.621516 179.722476,232.191092 C166.227425,232.806905 162.179418,232.936978 127.999746,232.936978 C93.8200742,232.936978 89.772067,232.806905 76.277016,232.191092 C63.7971424,231.621516 57.0196391,229.536286 52.5092638,227.783352 C46.5345536,225.461858 42.2700971,222.687649 37.7912238,218.208776 C33.3123505,213.729903 30.538142,209.465446 28.2166477,203.491244 C26.4637138,198.980361 24.3784845,192.202858 23.808908,179.723492 C23.1930946,166.225901 23.0630219,162.177893 23.0630219,128.000254 C23.0630219,93.8226147 23.1930946,89.7746075 23.808908,76.2775241 C24.3784845,63.7976504 26.4637138,57.0201472 28.2166477,52.5092638 C30.538142,46.5350617 33.3123505,42.2706052 37.7912238,37.7917319 C42.2700971,33.3128586 46.5345536,30.5386501 52.5092638,28.2166477 C57.0196391,26.4642218 63.7971424,24.3789926 76.2765079,23.8094161 C89.7740994,23.1936027 93.8221066,23.06353 127.999746,23.06353 M127.999746,0 C93.2367791,0 88.8783247,0.147348072 75.2257637,0.770274749 C61.601148,1.39218523 52.2968794,3.55566141 44.1546281,6.72008828 C35.7374966,9.99121548 28.5992446,14.3679613 21.4833489,21.483857 C14.3674532,28.5997527 9.99070739,35.7380046 6.71958019,44.1551362 C3.55515331,52.2973875 1.39167714,61.6016561 0.769766653,75.2262718 C0.146839975,88.8783247 0,93.2372872 0,128.000254 C0,162.763221 0.146839975,167.122183 0.769766653,180.774236 C1.39167714,194.398852 3.55515331,203.703121 6.71958019,211.845372 C9.99070739,220.261995 14.3674532,227.400755 21.4833489,234.516651 C28.5992446,241.632547 35.7374966,246.009293 44.1546281,249.28042 C52.2968794,252.444847 61.601148,254.608323 75.2257637,255.230233 C88.8783247,255.85316 93.2367791,256 127.999746,256 C162.762713,256 167.121675,255.85316 180.773728,255.230233 C194.398344,254.608323 203.702613,252.444847 211.844864,249.28042 C220.261995,246.009293 227.400247,241.632547 234.516143,234.516651 C241.632039,227.400755 246.008785,220.262503 249.279912,211.845372 C252.444339,203.703121 254.607815,194.398852 255.229725,180.774236 C255.852652,167.122183 256,162.763221 256,128.000254 C256,93.2372872 255.852652,88.8783247 255.229725,75.2262718 C254.607815,61.6016561 252.444339,52.2973875 249.279912,44.1551362 C246.008785,35.7380046 241.632039,28.5997527 234.516143,21.483857 C227.400247,14.3679613 220.261995,9.99121548 211.844864,6.72008828 C203.702613,3.55566141 194.398344,1.39218523 180.773728,0.770274749 C167.121675,0.147348072 162.762713,0 127.999746,0 Z M127.999746,62.2703115 C91.698262,62.2703115 62.2698034,91.69877 62.2698034,128.000254 C62.2698034,164.301738 91.698262,193.730197 127.999746,193.730197 C164.30123,193.730197 193.729689,164.301738 193.729689,128.000254 C193.729689,91.69877 164.30123,62.2703115 127.999746,62.2703115 Z M127.999746,170.667175 C104.435741,170.667175 85.3328252,151.564259 85.3328252,128.000254 C85.3328252,104.436249 104.435741,85.3333333 127.999746,85.3333333 C151.563751,85.3333333 170.666667,104.436249 170.666667,128.000254 C170.666667,151.564259 151.563751,170.667175 127.999746,170.667175 Z M211.686338,59.6734287 C211.686338,68.1566129 204.809755,75.0337031 196.326571,75.0337031 C187.843387,75.0337031 180.966297,68.1566129 180.966297,59.6734287 C180.966297,51.1902445 187.843387,44.3136624 196.326571,44.3136624 C204.809755,44.3136624 211.686338,51.1902445 211.686338,59.6734287 Z" fill="#0A0A08"></path>
    </g>
</svg>

<?xml version="1.0" encoding="utf-8"?>
<!-- Generator: Adobe Illustrator 27.3.1, SVG Export Plug-In . SVG Version: 6.00 Build 0)  -->
<svg version="1.1" id="Layer_1" xmlns="http://www.w3.org/2000/svg" xmlns:xlink="http://www.w3.org/1999/xlink" x="0px" y="0px"
	 viewBox="0 0 256 256" style="enable-background:new 0 0 256 256;" xml:space="preserve">
<style type="text/css">
	.st0{fill:#6E523B;}
</style>
<g>
	<path class="st0" d="M128,23.1c34.2,0,38.2,0.1,51.7,0.7c12.5,0.6,19.3,2.7,23.8,4.4c6,2.3,10.2,5.1,14.7,9.6s7.3,8.7,9.6,14.7
		c1.8,4.5,3.8,11.3,4.4,23.8c0.6,13.5,0.7,17.5,0.7,51.7s-0.1,38.2-0.7,51.7c-0.6,12.5-2.7,19.3-4.4,23.8c-2.3,6-5.1,10.2-9.6,14.7
		c-4.5,4.5-8.7,7.3-14.7,9.6c-4.5,1.8-11.3,3.8-23.8,4.4c-13.5,0.6-17.5,0.7-51.7,0.7s-38.2-0.1-51.7-0.7
		c-12.5-0.6-19.3-2.7-23.8-4.4c-6-2.3-10.2-5.1-14.7-9.6c-4.5-4.5-7.3-8.7-9.6-14.7c-1.8-4.5-3.8-11.3-4.4-23.8
		c-0.6-13.5-0.7-17.5-0.7-51.7s0.1-38.2,0.7-51.7c0.6-12.5,2.7-19.3,4.4-23.8c2.3-6,5.1-10.2,9.6-14.7s8.7-7.3,14.7-9.6
		c4.5-1.8,11.3-3.8,23.8-4.4C89.8,23.2,93.8,23.1,128,23.1 M128,0C93.2,0,88.9,0.1,75.2,0.8C61.6,1.4,52.3,3.6,44.2,6.7
		c-8.4,3.3-15.6,7.6-22.7,14.8S10,35.7,6.7,44.2c-3.2,8.1-5.3,17.4-5.9,31.1C0.1,88.9,0,93.2,0,128s0.1,39.1,0.8,52.8
		c0.6,13.6,2.8,22.9,5.9,31.1c3.3,8.4,7.6,15.6,14.8,22.7c7.1,7.1,14.3,11.5,22.7,14.8c8.1,3.2,17.4,5.3,31.1,5.9
		c13.7,0.6,18,0.8,52.8,0.8s39.1-0.1,52.8-0.8c13.6-0.6,22.9-2.8,31.1-5.9c8.4-3.3,15.6-7.6,22.7-14.8c7.1-7.1,11.5-14.3,14.8-22.7
		c3.2-8.1,5.3-17.4,5.9-31.1c0.6-13.7,0.8-18,0.8-52.8s-0.1-39.1-0.8-52.8c-0.6-13.6-2.8-22.9-5.9-31.1c-3.3-8.4-7.6-15.6-14.8-22.7
		S220.3,10,211.8,6.7c-8.1-3.2-17.4-5.3-31.1-5.9C167.1,0.1,162.8,0,128,0z M128,62.3c-36.3,0-65.7,29.4-65.7,65.7
		s29.4,65.7,65.7,65.7s65.7-29.4,65.7-65.7S164.3,62.3,128,62.3z M128,170.7c-23.6,0-42.7-19.1-42.7-42.7s19.1-42.7,42.7-42.7
		s42.7,19.1,42.7,42.7S151.6,170.7,128,170.7z M211.7,59.7c0,8.5-6.9,15.4-15.4,15.4S181,68.2,181,59.7s6.9-15.4,15.4-15.4
		S211.7,51.2,211.7,59.7z"/>
</g>
</svg>
